proprietary/assets/icons/vrijetijd-en-school/puzzel.svg

<svg height="64" viewBox="0 0 64 64" width="64" xmlns="http://www.w3.org/2000/svg"><path d="m0 0h64v64h-64z" fill="none"/><path d="m53.1852 6h-20.1852v7c0 .7139.4146 1.292.9858 1.375.3027.0391.5918-.0449.8506-.2422 1.4473-1.1035 2.814-2.1445 4.7637-1.6279 2.626.6963 4.4756 3.2832 4.3975 6.1523-.0747 2.7266-1.8335 5.0947-4.2773 5.7578-2.0269.5557-3.8037-.7852-4.8623-1.585-.2607-.1973-.562-.29-.8979-.2559-.3195.0265-.9601.6613-.9601 1.4259v7h7c1.6689 0 3.2988 1.334 3.4189 2.7979.0684.8271-.1577 1.6104-.6538 2.2666-.7817 1.0352-1.5229 2.1299-1.251 3.1328.3555 1.3076 1.7222 2.7422 3.8833 2.8008.0411.0019.0826.0019.1231.0019 1.9019 0 3.5898-1.209 4.0415-2.9131.2432-.918-.1592-1.5615-1.2847-3.0371-.5269-.6904-.7534-1.5107-.6372-2.3096.2325-1.6045 1.6426-2.7402 3.3599-2.7402h7v-20.1852c0-2.6592-2.1556-4.8148-4.8148-4.8148z"/><path d="m14.374 30.0146c.0449-.3047-.0435-.5918-.2412-.8516-1.103-1.4463-2.145-2.8115-1.6284-4.7617.6968-2.6279 3.269-4.4346 6.1528-4.3994 2.7266.0752 5.0947 1.834 5.7583 4.2773.5522 2.0332-.7861 3.8047-1.5854 4.8623-.1978.2617-.2837.5625-.2559.8955.0274.3302.648.963 1.4258.963h7v-7c0-1.6689 1.3335-3.2988 2.7974-3.4199.8311-.0576 1.6123.1602 2.2666.6543 1.0356.7822 2.1309 1.5234 3.1318 1.251 1.3086-.3555 2.7437-1.7217 2.8027-3.8828.0532-1.9521-1.1714-3.7031-2.9116-4.1641-.915-.2461-1.5605.1582-3.0366 1.2842-.689.5264-1.5107.7539-2.3096.6367-1.6054-.2315-2.7407-1.6416-2.7407-3.3594v-7h-20.1852c-2.6592 0-4.8148 2.1556-4.8148 4.8148v20.1852h7c.7139 0 1.2915-.4141 1.374-.9854z"/><path d="m49.626 33.9854c-.0449.3047.0435.5918.2412.8516 1.103 1.4463 2.145 2.8115 1.6284 4.7617-.6826 2.5742-3.1792 4.4013-5.9766 4.4013-.0586 0-.1172-.001-.1763-.002-2.7266-.0752-5.0947-1.834-5.7583-4.2773-.5522-2.0332.7861-3.8047 1.5854-4.8623.1978-.2617.2837-.5625.2559-.8955-.0263-.3223-.6611-.9629-1.4257-.9629h-7v7c0 1.6992-1.3071 3.2969-2.7974 3.4199-.8286.0605-1.6118-.1602-2.2666-.6543-1.0352-.7812-2.1304-1.5205-3.1318-1.251-1.3086.3555-2.7437 1.7217-2.8027 3.8828-.0532 1.9521 1.1714 3.7031 2.9116 4.1641.918.248 1.561-.1582 3.0366-1.2842.6885-.5273 1.5078-.7568 2.3096-.6367 1.6054.2315 2.7407 1.6416 2.7407 3.3594v7h20.1852c2.6592 0 4.8148-2.1557 4.8148-4.8148v-20.1852h-7c-.7139 0-1.2915.4141-1.374.9854z"/><path d="m30.0142 49.625c-.3057-.041-.5928.0449-.8506.2422-1.4473 1.1035-2.8149 2.1426-4.7637 1.6279-2.626-.6963-4.4756-3.2832-4.3975-6.1523.0747-2.7266 1.8335-5.0947 4.2773-5.7578 2.0273-.5547 3.8027.7852 4.8623 1.585.2603.1973.5571.2881.8979.2559.3195-.0265.9601-.6613.9601-1.4259v-7h-7c-1.6987 0-3.2964-1.3076-3.4189-2.7979-.0684-.8271.1577-1.6104.6538-2.2666.7817-1.0352 1.5229-2.1299 1.251-3.1328-.3555-1.3076-1.7222-2.7422-3.8833-2.8008-1.9541-.0762-3.7031 1.1709-4.1646 2.9111-.2432.918.1592 1.5615 1.2847 3.0371.5269.6904.7534 1.5107.6372 2.3096-.2325 1.6046-1.6426 2.7403-3.3599 2.7403h-7v20.1852c0 2.6591 2.1556 4.8148 4.8148 4.8148h20.1852v-7c0-.7139-.4146-1.292-.9858-1.375z"/></svg>

<?xml version="1.0" encoding="utf-8"?>
<!-- Generator: Adobe Illustrator 19.1.0, SVG Export Plug-In . SVG Version: 6.00 Build 0)  -->
<svg version="1.2" baseProfile="tiny" xmlns="http://www.w3.org/2000/svg" xmlns:xlink="http://www.w3.org/1999/xlink" x="0px"
	 y="0px" width="64px" height="64px" viewBox="0 0 64 64" xml:space="preserve">
<g id="_x36_4px_Box">
	<rect fill="none" width="64" height="64"/>
</g>
<g id="Icon">
	<g>
		<path d="M53.1852,6H33v7c0,0.7139,0.4146,1.292,0.9858,1.375c0.3027,0.0391,0.5918-0.0449,0.8506-0.2422
			c1.4473-1.1035,2.814-2.1445,4.7637-1.6279c2.626,0.6963,4.4756,3.2832,4.3975,6.1523c-0.0747,2.7266-1.8335,5.0947-4.2773,5.7578
			c-2.0269,0.5557-3.8037-0.7852-4.8623-1.585c-0.2607-0.1973-0.562-0.29-0.8979-0.2559C33.6406,22.6006,33,23.2354,33,24v7h7
			c1.6689,0,3.2988,1.334,3.4189,2.7979c0.0684,0.8271-0.1577,1.6104-0.6538,2.2666c-0.7817,1.0352-1.5229,2.1299-1.251,3.1328
			c0.3555,1.3076,1.7222,2.7422,3.8833,2.8008C45.4385,42,45.48,42,45.5205,42c1.9019,0,3.5898-1.209,4.0415-2.9131
			c0.2432-0.918-0.1592-1.5615-1.2847-3.0371c-0.5269-0.6904-0.7534-1.5107-0.6372-2.3096C47.8726,32.1357,49.2827,31,51,31h7
			V10.8148C58,8.1556,55.8444,6,53.1852,6z"/>
		<path d="M14.374,30.0146c0.0449-0.3047-0.0435-0.5918-0.2412-0.8516c-1.103-1.4463-2.145-2.8115-1.6284-4.7617
			c0.6968-2.6279,3.269-4.4346,6.1528-4.3994c2.7266,0.0752,5.0947,1.834,5.7583,4.2773c0.5522,2.0332-0.7861,3.8047-1.5854,4.8623
			c-0.1978,0.2617-0.2837,0.5625-0.2559,0.8955C22.6016,30.3672,23.2222,31,24,31h7v-7c0-1.6689,1.3335-3.2988,2.7974-3.4199
			c0.8311-0.0576,1.6123,0.1602,2.2666,0.6543c1.0356,0.7822,2.1309,1.5234,3.1318,1.251c1.3086-0.3555,2.7437-1.7217,2.8027-3.8828
			c0.0532-1.9521-1.1714-3.7031-2.9116-4.1641c-0.915-0.2461-1.5605,0.1582-3.0366,1.2842
			c-0.689,0.5264-1.5107,0.7539-2.3096,0.6367C32.1353,16.1279,31,14.7178,31,13V6H10.8148C8.1556,6,6,8.1556,6,10.8148V31h7
			C13.7139,31,14.2915,30.5859,14.374,30.0146z"/>
		<path d="M49.626,33.9854c-0.0449,0.3047,0.0435,0.5918,0.2412,0.8516c1.103,1.4463,2.145,2.8115,1.6284,4.7617
			C50.813,42.1729,48.3164,44,45.519,44c-0.0586,0-0.1172-0.001-0.1763-0.002c-2.7266-0.0752-5.0947-1.834-5.7583-4.2773
			c-0.5522-2.0332,0.7861-3.8047,1.5854-4.8623c0.1978-0.2617,0.2837-0.5625,0.2559-0.8955C41.3994,33.6406,40.7646,33,40,33h-7v7
			c0,1.6992-1.3071,3.2969-2.7974,3.4199c-0.8286,0.0605-1.6118-0.1602-2.2666-0.6543c-1.0352-0.7812-2.1304-1.5205-3.1318-1.251
			c-1.3086,0.3555-2.7437,1.7217-2.8027,3.8828c-0.0532,1.9521,1.1714,3.7031,2.9116,4.1641c0.918,0.248,1.561-0.1582,3.0366-1.2842
			c0.6885-0.5273,1.5078-0.7568,2.3096-0.6367C31.8647,47.8721,33,49.2822,33,51v7h20.1852C55.8444,58,58,55.8443,58,53.1852V33h-7
			C50.2861,33,49.7085,33.4141,49.626,33.9854z"/>
		<path d="M30.0142,49.625c-0.3057-0.041-0.5928,0.0449-0.8506,0.2422c-1.4473,1.1035-2.8149,2.1426-4.7637,1.6279
			c-2.626-0.6963-4.4756-3.2832-4.3975-6.1523c0.0747-2.7266,1.8335-5.0947,4.2773-5.7578c2.0273-0.5547,3.8027,0.7852,4.8623,1.585
			c0.2603,0.1973,0.5571,0.2881,0.8979,0.2559C30.3594,41.3994,31,40.7646,31,40v-7h-7c-1.6987,0-3.2964-1.3076-3.4189-2.7979
			c-0.0684-0.8271,0.1577-1.6104,0.6538-2.2666c0.7817-1.0352,1.5229-2.1299,1.251-3.1328
			c-0.3555-1.3076-1.7222-2.7422-3.8833-2.8008c-1.9541-0.0762-3.7031,1.1709-4.1646,2.9111
			c-0.2432,0.918,0.1592,1.5615,1.2847,3.0371c0.5269,0.6904,0.7534,1.5107,0.6372,2.3096C16.1274,31.8643,14.7173,33,13,33H6
			v20.1852C6,55.8443,8.1556,58,10.8148,58H31v-7C31,50.2861,30.5854,49.708,30.0142,49.625z"/>
	</g>
</g>
</svg>
